X:340
T:An dro
C:trad.
A:Bretagne
O:France
M:2/4
L:1/8
Q:1/4=85
K:C
|:BA/2B/2 ce|d/2c/2B/2A/2 B/2c/2d/2e/2|BA/2B/2 ce|ed B2:|
fe/2f/2 ge|ed/2e/2 fd|BA/2B/2 ce|d/2c/2B/2A/2 B/2c/2d/2e/2|
fe/2d/2 ga|ed/2c/2 fg| dc/2B/2 ce|edB2||
